packages/app/public/codesandbox.svg

<svg width="1063" height="1063" viewBox="0 0 1063 1063" fill="none" xmlns="http://www.w3.org/2000/svg">
<path d="M0 153.6C0 99.8349 0 72.9524 10.4634 52.4169C19.6672 34.3534 34.3534 19.6672 52.4169 10.4634C72.9524 0 99.835 0 153.6 0H909.4C963.165 0 990.048 0 1010.58 10.4634C1028.65 19.6672 1043.33 34.3534 1052.54 52.4169C1063 72.9524 1063 99.835 1063 153.6V909.4C1063 963.165 1063 990.048 1052.54 1010.58C1043.33 1028.65 1028.65 1043.33 1010.58 1052.54C990.048 1063 963.165 1063 909.4 1063H153.6C99.8349 1063 72.9524 1063 52.4169 1052.54C34.3534 1043.33 19.6672 1028.65 10.4634 1010.58C0 990.048 0 963.165 0 909.4V153.6Z" fill="#111518"/>
<path d="M531.469 117L173 322.559V730.162L531.449 933L890 729.512V321.689L531.469 117ZM715 631.478V766.004L558 855.093V541.124L835 383.782V563.174L715 631.478ZM228 558.352V380.509L503 536.342V854.28L361 774.133V634.479L228 558.352ZM539.544 327.143L664.443 255.731L806.754 336.991L534.863 491.671L259.757 335.707L406.479 251.558L539.544 327.143Z" fill="white"/>
</svg>

<svg width="1063" height="1063" fill="none" xmlns="http://www.w3.org/2000/svg"><path d="M0 153.6C0 99.835 0 72.952 10.463 52.417a96 96 0 0141.954-41.954C72.952 0 99.835 0 153.6 0h755.8c53.765 0 80.648 0 101.18 10.463a96.013 96.013 0 0141.96 41.954C1063 72.952 1063 99.835 1063 153.6v755.8c0 53.765 0 80.648-10.46 101.18a96.026 96.026 0 01-41.96 41.96C990.048 1063 963.165 1063 909.4 1063H153.6c-53.765 0-80.648 0-101.183-10.46a96.013 96.013 0 01-41.954-41.96C0 990.048 0 963.165 0 909.4V153.6z" fill="#111518"/><path d="M531.469 117L173 322.559v407.603L531.449 933 890 729.512V321.689L531.469 117zM715 631.478v134.526l-157 89.089V541.124l277-157.342v179.392l-120 68.304zm-487-73.126V380.509l275 155.833V854.28l-142-80.147V634.479l-133-76.127zm311.544-231.209l124.899-71.412 142.311 81.26-271.891 154.68-275.106-155.964 146.722-84.149 133.065 75.585z" fill="#fff"/></svg>
